!!!COM: Palestrina, Giovanni Perluigi da
!!!OPR: Io mi son giovinetta (1570)
!!!OTL: Credo
**kern	**kern	**kern	**kern
*Ibass	*Itenor	*Icalto	*Icant
!Bassus	!Tenor	!Altus	!Cantus
*clefF4	*clefGv2	*clefG2	*clefG2
*k[b-]	*k[b-]	*k[b-]	*k[b-]
*G:dor	*G:dor	*G:dor	*G:dor
*M4/2	*M4/2	*M4/2	*M4/2
=1	=1	=1	=1
0r	0r	1r	1dd
.	.	1g	2dd
.	.	.	2dd
=2	=2	=2	=2
0r	0r	2g	2.ee
.	.	2g	.
.	.	.	4dd
.	.	2.a	2cc
.	.	.	[2ff
.	.	4g	.
=3	=3	=3	=3
0r	0r	2f	2ff]
.	.	2g	2.ee
.	.	2f	.
.	.	.	4dd
.	.	2g	[2dd
=4	=4	=4	=4
0r	0r	1e	2dd]
.	.	.	2cc#
.	.	2d	2dd
.	.	[2g	2b-
=5	=5	=5	=5
1r	1d	2g]	1a
.	.	2f#	.
1G	2d	1g	[1g
.	2d	.	.
=6	=6	=6	=6
2G	2.e	0r	1g]
2G	.	.	.
.	4d	.	.
2.A	2c	.	1r
.	[2f	.	.
4G	.	.	.
=7	=7	=7	=7
2F	2f]	0r	0r
2G	2.e	.	.
2F	.	.	.
.	4d	.	.
2G	[2d	.	.
=8	=8	=8	=8
1E	2d]	2r	1r
.	2c#	2e	.
1D	1d	2f	2r
.	.	2d	2a
=9	=9	=9	=9
1r	1A	2e	2cc
.	.	2f	2a
2r	1r	2g	2b-
2A	.	2e	2cc
=10	=10	=10	=10
2B-	1r	1d	1.dd
2G	.	.	.
2B-	2r	1g	.
2c	2e	.	2cc
=11	=11	=11	=11
1d	2f	1f	2b-
.	2d	.	2a
1B-	2f	2.d	2r
.	2g	.	[2dd
.	.	4e	.
=12	=12	=12	=12
1A	1a	4f	2dd]
.	.	4g	.
.	.	4a	2cc
.	.	4b-	.
2r	2f	1cc	4a
.	.	.	4b-
[2A	2e	.	4cc
.	.	.	4dd
=13	=13	=13	=13
2A]	2.a	2cc	2ee
2F	.	1cc	2ff
.	4a	.	.
2c	2g	.	2ee
2d	2f	2b-	[2dd
=14	=14	=14	=14
1A	1e	0a	2dd]
.	.	.	4cc
.	.	.	4b
1A	1e	.	2cc#
.	.	.	2cc#
=15	=15	=15	=15
2D	2d	2r	2dd
1G	1d	1g	1b-
2G	2d	2g	2b-
=16	=16	=16	=16
2G	2d	2g	2b-
2G	2d	2g	2b-
2C	2e-	2g	2cc
2C	2e-	2g	2cc
=17	=17	=17	=17
1D	0d	1f#	1a
1D	.	1f#	1dd
=18	=18	=18	=18
1E-	2r	1g	1b-
.	2G	.	.
1C	2G	1g	1ee-
.	[2c	.	.
=19	=19	=19	=19
0G	2c]	0g	1.dd
.	4B-	.	.
.	4A	.	.
.	2B-	.	.
.	2B-	.	2dd
=20	=20	=20	=20
0r	2G	2r	2b-
.	2F	2a	2cc
.	1B-	2f	1dd
.	.	2g	.
=21	=21	=21	=21
0r	2F	1.a	1cc
.	1f	.	.
.	.	.	2ff
.	2c	2g	[2ee
=22	=22	=22	=22
0r	2d	2f	4ee]
.	.	.	4dd
.	2G	2g	1dd
.	1A	2e	.
.	.	2e	2cc#
=23	=23	=23	=23
1D	2r	2d	2dd
.	2d	2f	2dd
2G	2d	2g	2b-
2F	2f	2a	2cc
=24	=24	=24	=24
2BB-	2.f	2b-	2.dd
2BB-	.	4B-	.
.	4e-	4c	4cc
2B-	2d	4d	2b-
.	.	4e-	.
2F	2c	2f	[2a
=25	=25	=25	=25
2G	2B-	2d	4a]
.	.	.	4g
2C	2c	2e-	1g
1D	2A	2d	.
.	2A	2d	2f#
=26	=26	=26	=26
2r	1G	2.B-	2.g
1G	.	.	.
.	.	4c	4a
.	2r	1d	4b-
.	.	.	4a
2G	[2d	.	4b-
.	.	.	4cc
=27	=27	=27	=27
2.B-	2d]	0r	1dd
.	2d	.	.
4c	.	.	.
1d	2.f	.	1a
.	4g	.	.
=28	=28	=28	=28
2A	1a	0r	0r
1c	.	.	.
.	2e	.	.
2G	[2g	.	.
=29	=29	=29	=29
2.B-	2g]	0r	0r
.	2d	.	.
4A	.	.	.
2F	2.f	.	.
[2A	.	.	.
.	4e	.	.
=30	=30	=30	=30
2A]	2c	0r	0r
4G	2.e	.	.
4F	.	.	.
2.G	.	.	.
.	4d	.	.
.	[2d	.	.
4F	.	.	.
=31	=31	=31	=31
2E	2d]	2r	1r
2E	2c#	2g	.
1D	1d	2f	2r
.	.	2d	2dd
=32	=32	=32	=32
0r	1r	2e	2cc#
.	.	2f	2dd
.	2r	1g	1b-
.	2g	.	.
=33	=33	=33	=33
2r	2f	1d	0a
2d	2d	.	.
2c#	2e	2r	.
2d	[2f	[2a	.
=34	=34	=34	=34
2B-	2f]	2a]	1dd
2B-	4e	2g	.
.	4d	.	.
2A	2e	1a	2cc#
2F	2f	.	2dd
=35	=35	=35	=35
2G	0d	1.g	2b-
2G	.	.	2b-
1D	.	.	[1a
.	.	4f	.
.	.	4e	.
=36	=36	=36	=36
1.d	2r	2f	0a]
.	1f	2d	.
.	.	2A	.
2c	2e	2a	.
=37	=37	=37	=37
1B-	1d	2g	2r
.	.	4f	1ff
.	.	4g	.
2A	2c	4a	.
.	.	4b-	.
2A	2c	2cc	2ee
=38	=38	=38	=38
2B-	2.d	1b-	1dd
2G	.	.	.
.	4e	.	.
1A	2f	[1a	2cc
.	[2e	.	2cc
=39	=39	=39	=39
1D	4e]	1a]	2.dd
.	4d	.	.
.	1d	.	.
.	.	.	4ee
1A	.	2r	2ff
.	2c#	2a	[2ee
=40	=40	=40	=40
2G	1d	2b-	4ee]
.	.	.	4dd
2B-	.	2g	1dd
1A	1e	1a	.
.	.	.	2cc#
=41	=41	=41	=41
2D	1d	0f	0dd
2.d	.	.	.
.	2r	.	.
4c	.	.	.
4B-	[2d	.	.
4A	.	.	.
=42	=42	=42	=42
2.G	2d]	2r	0r
.	2d	1g	.
4F	.	.	.
1E	2c#	.	.
.	2c#	2g	.
=43	=43	=43	=43
1D	4d	2f#	2r
.	4c	.	.
.	4B-	2f#	1dd
.	4A	.	.
1r	1B-	4g	.
.	.	4f	.
.	.	4f	2dd
.	.	8e	.
.	.	8d	.
=44	=44	=44	=44
0r	1A	1e	2cc#
.	.	.	2cc#
.	2r	1d	4dd
.	.	.	4cc
.	[2d	.	4b-
.	.	.	4a
=45	=45	=45	=45
0r	2d]	2r	1b-
.	2B-	1g	.
.	2c	.	1a
.	2d	2f#	.
=46	=46	=46	=46
0r	2e-	2g	2r
.	2d	2a	1dd
.	1g	1b-	.
.	.	.	2b-
=47	=47	=47	=47
0r	2.f	2.a	2cc
.	.	.	2dd
.	8e-	8g	.
.	8d	8f	.
.	2c	4g	2ee-
.	.	4a	.
.	2B-	2b-	2dd
=48	=48	=48	=48
0r	1c	2a	2.cc
.	.	1g	.
.	.	.	4b-
.	1d	.	1a
.	.	2f#	.
=49	=49	=49	=49
2r	1G	2.g	2g
1G	.	.	2.b-
.	.	8f	.
.	.	8e-	.
.	2r	1d	.
.	.	.	4a
2B-	2d	.	4f
.	.	.	4g
=50	=50	=50	=50
2A	1f	0r	2.a
2F	.	.	.
.	.	.	4b-
2.A	2e	.	1cc
.	2c	.	.
4B-	.	.	.
=51	=51	=51	=51
2c	2.e	2r	1g
4C	.	1g	.
4D	4f	.	.
4E	2g	.	1r
4F	.	.	.
2G	2d	2b-	.
=52	=52	=52	=52
2.D	1f	2a	1r
.	.	2f	.
4E	.	.	.
1F	2.c	2.a	2r
.	.	.	[2cc
.	4d	4b-	.
=53	=53	=53	=53
1C	2.e-	2cc	2cc]
.	.	2.g	2ee-
.	4d	.	.
1G	4B-	.	2dd
.	4c	4a	.
.	2d	[2b-	2b-
=54	=54	=54	=54
1.B-	4G	4b-]	2.dd
.	4A	4a	.
.	4B-	2.f	.
.	4c	.	4ee-
.	4d	.	2.ff
.	4e-	4g	.
2F	[2f	2a	.
.	.	.	4ee-
=55	=55	=55	=55
2B-	4f]	1f	2dd
.	4e-	.	.
2A	2c	.	2.cc
2G	2d	1g	.
.	.	.	4b-
2E-	2e-	.	[2b-
=56	=56	=56	=56
1F	1c	1f	2b-]
.	.	.	2a
2r	1B-	[1d	[1b-
2G	.	.	.
=57	=57	=57	=57
1G	2r	1d]	1b-]
.	2d	.	.
2F	1d	1r	1r
2G	.	.	.
=58	=58	=58	=58
2E	2c	0r	0r
2F	2d	.	.
2D	2B-	.	.
2E	2c	.	.
=59	=59	=59	=59
2F	2A	1r	0r
2.G	2.B-	.	.
.	.	2r	.
4F	4c	.	.
4E	[2d	2g	.
4D	.	.	.
=60	=60	=60	=60
1E	2d]	1g	1r
.	2c#	.	.
1D	2.d	2.f	2r
.	.	.	2dd
.	4e	4g	.
=61	=61	=61	=61
0r	2f	2a	1dd
.	2g	2b-	.
.	2e	2g	2cc
.	2f	[2a	2dd
=62	=62	=62	=62
1r	2g	4a]	2b-
.	.	4g	.
.	2c	1g	2cc
2r	1d	.	[1a
2d	.	4f	.
.	.	4e	.
=63	=63	=63	=63
1d	2r	2.f	1a]
.	2a	.	.
.	.	4d	.
2c	1a	2e	1r
2d	.	2f	.
=64	=64	=64	=64
2B-	2g	2d	0r
2c	2a	2e	.
2A	2f	2c	.
2B-	2g	2d	.
=65	=65	=65	=65
2c	2e	2r	0r
2.d	1f	2a	.
.	.	1a	.
4c	.	.	.
4A	4e	.	.
4B-	4d	.	.
=66	=66	=66	=66
2c	2e	2g	0r
2F	2.f	2a	.
2.B-	.	2f	.
.	4e	.	.
.	[2d	2g	.
4G	.	.	.
=67	=67	=67	=67
1A	2d]	1e	1r
.	2c#	.	.
1D	2.d	2.f	2r
.	.	.	2dd
.	4e	4g	.
=68	=68	=68	=68
0r	2f	2a	1dd
.	2g	2b-	.
.	2e	2g	2cc
.	2f	[2a	2dd
=69	=69	=69	=69
0r	2g	4a]	2b-
.	.	4g	.
.	2c	1g	2cc
.	2d	.	1a
.	2d	2f#	.
=70	=70	=70	=70
1G	1d	0g	2.b-
.	.	.	4cc
1G	2G	.	1dd
.	[2g	.	.
=71	=71	=71	=71
2C	4g]	0r	0r
.	4f	.	.
2.c	4e	.	.
.	4d	.	.
.	2.c	.	.
4B-	.	.	.
4A	.	.	.
4G	4B-	.	.
=72	=72	=72	=72
2F	2A	2r	0r
2.G	2.B-	2d	.
.	.	1d	.
4F	4c	.	.
2D	[2d	.	.
=73	=73	=73	=73
1E	2d]	2G	1r
.	2c#	2g	.
1D	1d	2g	2r
.	.	2f	2dd
=74	=74	=74	=74
1G	2r	4b-	1dd
.	.	4g	.
.	2d	2.b-	.
1G	2d	.	2g
.	.	4a	.
.	2G	4g	[2gg
.	.	4f	.
=75	=75	=75	=75
1C	2.g	0e-	4gg]
.	.	.	4ff
.	.	.	4ee-
.	4f	.	4dd
1C	4e-	.	4cc
.	4d	.	4b-
.	4c	.	4a
.	4B-	.	4g
=76	=76	=76	=76
0D	2A	0d	2f#
.	2G	.	1g
.	1A	.	.
.	.	.	2f#
=77	=77	=77	=77
0G	0G	0d	0g
=78	=78	=78	=78
0G	0g	0b-	0dd
=79	=79	=79	=79
1d	1f#	1a	1dd
1G	1g	1b	1dd
=80	=80	=80	=80
1.c	1g	1cc	1.ee
.	2c	1g	.
2B-	2d	.	2dd
=81	=81	=81	=81
1A	1e	1a	1cc#
1D	1f	1a	1dd
=82	=82	=82	=82
1A	1e	1a	1cc
2F	1f	2a	2cc
2F	.	2a	2dd
=83	=83	=83	=83
0G	1d	1g	0b-
.	[1g	1d	.
=84	=84	=84	=84
1D	2g]	2r	0a
.	4f	1d	.
.	4e	.	.
1r	2f	.	.
.	2c	2e	.
=85	=85	=85	=85
0r	1d	2f	2r
.	.	2d	1a
.	2c	2e	.
.	2d	2f	2a
=86	=86	=86	=86
2r	1G	1.g	2b-
1G	.	.	2g
.	1r	.	2b-
2A	.	4f	2cc
.	.	4e	.
=87	=87	=87	=87
2B-	2r	4d	1.dd
.	.	4c	.
2G	1d	4B-	.
.	.	4A	.
2B-	.	2G	.
2c	2e	2g	4cc
.	.	.	4b-
=88	=88	=88	=88
2.d	2f	2f	4a
.	.	.	4g
.	2d	1a	4f
4c	.	.	4e
1B-	2f	.	2d
.	2g	2g	2dd
=89	=89	=89	=89
1A	1a	2f	2dd
.	.	2e	2cc
1D	2r	4d	1ff
.	.	4e	.
.	2d	4f	.
.	.	4g	.
=90	=90	=90	=90
2r	2d	1a	1ee
2A	2c	.	.
2A	1f	2r	2.cc
2F	.	2a	.
.	.	.	4dd
=91	=91	=91	=91
1c	2e	2g	4ee
.	.	.	4ff
.	2c	2a	2.ee
1B-	2.d	2b-	.
.	.	.	4dd
.	.	2g	[2dd
.	4e	.	.
=92	=92	=92	=92
0A	2f	0a	2dd]
.	4e	.	4cc
.	4d	.	4b
.	1e	.	1cc#
=93	=93	=93	=93
1D	0d	2r	[0dd
.	.	1a	.
2r	.	.	.
[2B-	.	2f	.
=94	=94	=94	=94
2B-]	2r	1b-	1dd]
2G	1g	.	.
1d	.	1a	2r
.	2f#	.	[2dd
=95	=95	=95	=95
1G	1g	2r	2dd]
.	.	1g	2b-
1r	1c	.	1ee-
.	.	2g	.
=96	=96	=96	=96
0r	0r	2g	1dd
.	.	2f	.
.	.	2.b-	2r
.	.	.	[2dd
.	.	4a	.
=97	=97	=97	=97
0r	0r	2g	2dd]
.	.	2f	2dd
.	.	1e	2dd
.	.	.	2cc
=98	=98	=98	=98
0r	0r	1d	2.ff
.	.	.	4ee
.	.	1f	2dd
.	.	.	2cc
=99	=99	=99	=99
0r	0r	2g	1b-
.	.	2g	.
.	.	2f	1a
.	.	2d	.
=100	=100	=100	=100
0r	0r	2e	1cc
.	.	1f	.
.	.	.	2dd
.	.	4e	2dd
.	.	4d	.
=101	=101	=101	=101
2r	0r	2e	2cc
2F	.	2f	2a
2G	.	4B-	1b-
.	.	4c	.
2G	.	4d	.
.	.	4e	.
=102	=102	=102	=102
2F	1r	4f	2a
.	.	4g	.
2D	.	2.a	2f
1E-	2r	.	2.g
.	.	4g	.
.	2c	[2g	.
.	.	.	4a
=103	=103	=103	=103
1D	2d	2g]	2b-
.	2d	2f	4a
.	.	.	4b
1r	2c	2e	4cc
.	.	.	4dd
.	2A	2c	[2ee
=104	=104	=104	=104
0r	1B-	1d	4ee]
.	.	.	4dd
.	.	.	1dd
.	1A	1e	.
.	.	.	2cc#
=105	=105	=105	=105
2r	2r	2d	2dd
1BB-	1B-	1f	1dd
2BB-	2B-	2f	2dd
=106	=106	=106	=106
2F	2A	1f	2cc
2BB-	2d	.	2b-
1C	2.c	1e	2a
.	.	.	2g
.	4B-	.	.
=107	=107	=107	=107
1.D	4A	2.d	2.f
.	4F	.	.
.	2.f	.	.
.	.	4e	4g
.	.	1f	2a
.	4e	.	.
2BB-	2d	.	2b-
=108	=108	=108	=108
2C	4c	2e-	4a
.	4B-	.	4g
2E-	4A	2c	1g
.	4G	.	.
1D	1A	1d	.
.	.	.	2f#
=109	=109	=109	=109
0G	0G	0d	0g
*	*	*	*-
!! Et resurrexit
*Ibass	*Icalto	*Icant
!Bassus	!Altus	!Cantus
*clefF4	*clefG2	*clefG2
*k[b-]	*k[b-]	*k[b-]
*G:dor	*G:dor	*G:dor
*M4/2	*M4/2	*M4/2
=110	=110	=110
0r	0r	1g
.	.	2b-
.	.	2b-
=111	=111	=111
0r	0r	1cc
.	.	1dd
=112	=112	=112
0r	1d	2r
.	.	2.dd
.	2f	.
.	.	4cc
.	2f	2a
=113	=113	=113
0r	1g	1b-
.	1a	4a
.	.	4b-
.	.	4cc
.	.	4a
=114	=114	=114
1G	2r	4b-
.	.	4a
.	2.g	4b-
.	.	4cc
2B-	.	1dd
.	4f	.
2B-	2d	.
=115	=115	=115
1c	1e	2g
.	.	1gg
1d	2d	.
.	2a	2ff
=116	=116	=116
2r	4b-	2dd
.	4a	.
2.c	4g	2.ee-
.	4f	.
.	2.g	.
4B-	.	4dd
2G	.	[2dd
.	4f	.
=117	=117	=117
1A	2e	2dd]
.	2.f	2cc
2F	.	2a
.	4e-	.
[2G	4d	[2b-
.	4c	.
=118	=118	=118
4G]	4B-	4b-]
4F	4c	4a
2D	1d	4a
.	.	8g
.	.	8f
1E-	.	1g
.	2c	.
=119	=119	=119
2D	1d	0f#
2d	.	.
1d	2r	.
.	2a	.
=120	=120	=120
2c	2a	0r
2B-	1g	.
1A	.	.
.	2f	.
=121	=121	=121
1G	2.b-	1dd
.	4a	.
1B-	2f	1dd
.	2g	.
=122	=122	=122
2F	2a	2cc
2G	1g	2b-
2.d	.	1a
.	2f#	.
4c	.	.
=123	=123	=123
4B-	1g	2.b-
4A	.	.
1G	.	.
.	.	4g
.	2r	2g
2F#	2d	2a
=124	=124	=124
2G	2d	2b-
2C	2e	2cc
1r	2f	2.dd
.	2g	.
.	.	4ee
=125	=125	=125
1r	2.a	2ff
.	.	4ee-
.	4b	4dd
2r	2cc	2ee-
2G	4b-	[2dd
.	4a	.
=126	=126	=126
2G	2b-	2dd]
2A	2.a	2cc
2B-	.	2dd
.	4g	.
2c	[2g	4cc
.	.	4b-
=127	=127	=127
1d	2g]	1a
.	4f	.
.	4e	.
2d	2.f	2.dd
2D	.	.
.	4g	4ee
=128	=128	=128
2D	4a	2ff
.	4b-	.
2E	2g	2.ee
2F	2a	.
.	.	4dd
2G	4g	[2dd
.	4f	.
=129	=129	=129
1A	1e	2dd]
.	.	2cc#
2.B-	[1d	1dd
4A	.	.
=130	=130	=130
2G	1d]	2r
2F	.	2dd
2G	2r	2b-
2A	2a	2cc
=131	=131	=131
1B-	2f	1.dd
.	2g	.
1A	2.a	.
.	.	2cc
.	4g	.
=132	=132	=132
1r	2f	2a
.	2e	2cc
2r	2d	2b-
2d	[2f	2a
=133	=133	=133
2B-	2f]	1g
2c	2e	.
2.d	1f	[1f
4c	.	.
=134	=134	=134
2B-	2r	1f]
2A	2a	.
1G	2b-	2r
.	2b-	2dd
=135	=135	=135
1F	2a	2ff
.	2f	2ff
1r	2g	2ee
.	2a	2cc
=136	=136	=136
0r	2b-	2dd
.	4a	2ee
.	4g	.
.	2f	2ff
.	2g	4ee
.	.	4dd
=137	=137	=137
1A	1a	4cc
.	.	4dd
.	.	4ee
.	.	4cc
2B-	1d	4dd
.	.	4ee
2B-	.	[2ff
=138	=138	=138
2A	1f	4ff]
.	.	4ee
2F	.	1dd
2G	1e	.
2A	.	2cc#
=139	=139	=139
2.B-	1d	1dd
4A	.	.
[1G	2r	2r
.	2b-	2dd
=140	=140	=140
1G]	2.b-	2.dd
.	4b-	4dd
1r	2a	2cc
.	[2g	[2b-
=141	=141	=141
0r	2g]	2b-]
.	2f	2a
.	1b-	1g
=142	=142	=142
2r	1a	2.f
2d	.	.
.	.	4g
2.d	2r	1a
.	2f	.
4d	.	.
=143	=143	=143
2c	2e	1r
1B-	2d	.
.	1f	2r
2A	.	2ff
=144	=144	=144
1G	1g	2ee
.	.	2dd
2F	2a	2.ff
2B-	2d	.
.	.	8ee
.	.	8dd
=145	=145	=145
2A	4e	4cc
.	4f	4dd
2G	2.g	2.ee
1B-	.	.
.	4f	4dd
.	4f	[2dd
.	8e	.
.	8d	.
=146	=146	=146
1A	2e	2dd]
.	2e	2cc#
2D	1d	[1dd
[2d	.	.
=147	=147	=147
4d]	1r	1dd]
4c	.	.
1B-	.	.
.	1f	1r
2A	.	.
=148	=148	=148
2G	1g	1b-
2G	.	.
2.F	1a	1cc
4E	.	.
=149	=149	=149
1D	2a	1dd
.	2f	.
1r	2g	2dd
.	2b-	2b-
=150	=150	=150
0r	2a	2cc
.	2.g	2ee-
.	.	2dd
.	4f	.
.	4e	[2cc
.	4d	.
=151	=151	=151
1r	2c	4cc]
.	.	4b-
.	2.cc	4a
.	.	4g
1F	.	2f
.	4b-	.
.	2a	2ff
=152	=152	=152
1G	2g	2ee
.	2f	1dd
1A	1e	.
.	.	4cc
.	.	4b
=153	=153	=153
2A	1a	2.cc
2F	.	.
.	.	4a
2G	4g	4b-
.	4f	4cc
2B-	4e	[2dd
.	4d	.
=154	=154	=154
1A	1e	2dd]
.	.	2cc
2D	[1d	2b-
2F	.	2a
=155	=155	=155
2G	1d]	2.b-
1B-	.	.
.	.	4a
.	2r	2g
2A	2f	[2f
=156	=156	=156
1G	1g	2f]
.	.	2e
2.F	1a	1f
4G	.	.
=157	=157	=157
2A	2a	1r
2B-	2f	.
1G	2g	1b-
.	2b-	.
=158	=158	=158
1F	1a	1cc
1r	2d	1dd
.	2f	.
=159	=159	=159
0r	2g	2dd
.	2b-	2b-
.	2a	2cc
.	[2g	2ee-
=160	=160	=160
1B-	4g]	1dd
.	4f	.
.	2f	.
1c	2e	2.g
.	[2g	.
.	.	4a
=161	=161	=161
1d	2g]	2b-
.	4f	4a
.	4e	4g
2d	2f	2a
2B-	2b-	2dd
=162	=162	=162
2c	4a	2.cc
.	4g	.
2c	1g	.
.	.	4b-
1d	.	1a
.	2f#	.
=163	=163	=163
0G	0g	0g
*-	*-	*-
!! Et in Spiritum
**kern	**kern	**kern	**kern
*Ibass	*Itenor	*Icalto	*Icant
!Bassus	!Tenor	!Altus	!Cantus
*clefF4	*clefGv2	*clefG2	*clefG2
*k[b-]	*k[b-]	*k[b-]	*k[b-]
*G:dor	*G:dor	*G:dor	*G:dor
*M4/2	*M4/2	*M4/2	*M4/2
=164	=164	=164	=164
1.G	1r	0r	0r
.	[1d	.	.
2F	.	.	.
=165	=165	=165	=165
2G	2d]	0r	0r
2A	2c	.	.
2B-	2d	.	.
[2A	2e	.	.
=166	=166	=166	=166
2A]	2f	0r	0r
2G	1e	.	.
2A	.	.	.
2B-	2d	.	.
=167	=167	=167	=167
2c	2e	0r	0r
1B-	2f	.	.
.	2g	.	.
2A	[2f	.	.
=168	=168	=168	=168
2B-	2f]	0r	0r
2c	2e	.	.
2d	2f	.	.
2c	2g	.	.
=169	=169	=169	=169
2A	2a	0r	0r
2B-	2.g	.	.
1A	.	.	.
.	4e	.	.
.	2f#	.	.
=170	=170	=170	=170
2G	2g	2r	2r
1G	1d	1g	1b-
2G	2d	2g	2b-
=171	=171	=171	=171
1C	1e-	1g	1cc
1D	2d	2f#	2a
.	2d	2f#	2dd
=172	=172	=172	=172
0r	2e-	2g	2b-
.	2c	2a	2cc
.	4B-	[1b-	[1dd
.	4c	.	.
.	4d	.	.
.	4e-	.	.
=173	=173	=173	=173
2r	2.f	2b-]	2dd]
2F	.	2a	2cc
.	4e-	.	.
2G	2d	2g	2b-
2A	2c	2f#	[2a
=174	=174	=174	=174
2B-	2d	1g	4a]
.	.	.	4g
2c	1e-	.	1g
1A	.	2c	.
.	4d	[2cc	2f#
.	4c	.	.
=175	=175	=175	=175
2G	1d	2cc]	0g
1G	.	4b-	.
.	.	4a	.
.	2r	2.b-	.
2G	[2d	.	.
.	.	4a	.
=176	=176	=176	=176
1B-	2d]	2f	0r
.	2d	2g	.
2A	1f	1a	.
2F	.	.	.
=177	=177	=177	=177
2A	2e	1r	0r
2A	2c	.	.
[1G	2e	2r	.
.	2e	[2g	.
=178	=178	=178	=178
0G]	2d	2g]	2r
.	2.G	2g	1dd
.	.	1b-	.
.	4A	.	.
.	4B-	.	2dd
.	4c	.	.
=179	=179	=179	=179
0r	1d	2a	1ff
.	.	2f	.
.	2.A	2a	2ee
.	.	2a	2cc
.	4B-	.	.
=180	=180	=180	=180
0r	1c	2g	2ee
.	.	1g	2ee
.	1r	.	1dd
.	.	2f	.
=181	=181	=181	=181
0r	0r	2b-	2r
.	.	2g	1dd
.	.	1a	.
.	.	.	2cc
=182	=182	=182	=182
0r	2r	4d	2ff
.	.	4e	.
.	1d	4f	2dd
.	.	4g	.
.	.	[1a	2ff
.	2c	.	[2ee
=183	=183	=183	=183
0r	2f	1a]	4ee]
.	.	.	4dd
.	2d	.	1dd
.	1e	2r	.
.	.	2g	2cc
=184	=184	=184	=184
1r	0d	2g	2b-
.	.	2f	2a
1G	.	2b-	4g
.	.	.	4a
.	.	2g	4b-
.	.	.	4cc
=185	=185	=185	=185
2G	1r	2b-	0dd
2F	.	4a	.
.	.	4g	.
2B-	2r	2f	.
2G	2d	2g	.
=186	=186	=186	=186
1A	2d	2e	1r
.	2c	2a	.
2D	2f	2a	2r
2d	2d	2f	2dd
=187	=187	=187	=187
2B-	2f	2b-	2dd
2c	2.e	2g	2cc
2d	.	1b-	2ff
.	4d	.	.
2G	[2d	.	2dd
=188	=188	=188	=188
1A	2d]	2.a	2ff
.	2c#	.	2.ee
.	.	4g	.
1D	1d	2f	.
.	.	.	4dd
.	.	4e	[2dd
.	.	4d	.
=189	=189	=189	=189
1r	1A	1e	2dd]
.	.	.	2cc#
2r	2r	1d	2dd
[2BB-	[2f	.	[2dd
=190	=190	=190	=190
2BB-]	2f]	2.d	2dd]
2BB-	2f	.	2dd
.	.	4d	.
1C	2.e	2.g	2.cc
.	4d	4f	4b-
=191	=191	=191	=191
1C	2c	2e	2a
.	2B-	2e	2g
2D	2A	2d	2f
2BB-	2d	2f	2b-
=192	=192	=192	=192
2C	4c	2e-	2a
.	4B-	.	.
2E-	4A	2c	1g
.	4G	.	.
1D	1A	1d	.
.	.	.	2f#
=193	=193	=193	=193
1G	1G	[0d	4g
.	.	.	4a
.	.	.	4b-
.	.	.	4cc
2r	2r	.	1dd
2G	2G	.	.
=194	=194	=194	=194
2F#	2A	1d]	0r
2G	2B-	.	.
1E-	1c	1r	.
=195	=195	=195	=195
1D	1d	2r	2r
.	.	2d	2dd
1r	1r	2e	2cc#
.	.	2f	2dd
=196	=196	=196	=196
1G	2r	1g	1b-
.	2d	.	.
[1d	2e	2.f	2a
.	4f	.	[2ff
.	4g	4e	.
=197	=197	=197	=197
2d]	1a	2d	2ff]
2c	.	2e	2ee
2B-	2d	2f	2dd
2B-	2d	2g	2dd
=198	=198	=198	=198
2A	1e	2a	1cc#
2A	.	2a	.
2B-	1r	2g	1r
2c	.	2a	.
=199	=199	=199	=199
2d	0r	2.f	2r
2d	.	.	2dd
.	.	4f	.
2A	.	2e	2cc#
2B-	.	[2d	2dd
=200	=200	=200	=200
2G	1r	2d]	2.b-
2G	.	2g	.
.	.	.	4b-
1D	1d	2.f	1a
.	.	8e	.
.	.	8d	.
=201	=201	=201	=201
0r	2c#	2e	2r
.	2d	2f	2.ff
.	2B-	4d	.
.	.	4e	4ee
.	2B-	4f	[2dd
.	.	4d	.
=202	=202	=202	=202
1r	2A	1e	2dd]
.	2A	.	2cc#
2r	2.B-	2d	2dd
2G	.	2g	2b-
.	4c	.	.
=203	=203	=203	=203
2G	2d	2g	2b-
2G	2d	2g	2b-
2D	2d	2.f	[1a
2d	2d	.	.
.	.	4d	.
=204	=204	=204	=204
2c	2A	2e	1a]
2A	2a	2f	.
2.c	2g	1e	1r
.	2e	.	.
4B-	.	.	.
=205	=205	=205	=205
2A	2f	0r	2r
2G	1g	.	2dd
1A	.	.	2cc
.	2f#	.	2a
=206	=206	=206	=206
1G	1g	2r	2.b-
.	.	2g	.
.	.	.	4cc
1r	1d	2f	4dd
.	.	.	4ee
.	.	2d	[2ff
=207	=207	=207	=207
1r	1r	2f	4ff]
.	.	.	4ee
.	.	2g	1dd
2r	2r	1e	.
2A	2a	.	2cc#
=208	=208	=208	=208
2B-	2g	1d	1dd
1d	1f	.	.
.	.	1r	[1a
2c#	2e	.	.
=209	=209	=209	=209
1d	1f	0r	0a]
1A	2d	.	.
.	[2a	.	.
=210	=210	=210	=210
1B-	2a]	1d	2r
.	2g	.	2dd
2A	2a	2e	2cc
2G	2d	[2g	[2b-
=211	=211	=211	=211
1d	1r	2g]	2b-]
.	.	2f#	2a
1G	2r	1g	1b-
.	[2g	.	.
=212	=212	=212	=212
2r	4g]	1d	2a
.	4f	.	.
1d	2f	.	1ff
.	2d	2r	.
2c	2e	[2a	[2ee
=213	=213	=213	=213
1B-	2f	2a]	4ee]
.	.	.	4dd
.	4e	2g	1dd
.	4d	.	.
1A	1e	1a	.
.	.	.	2cc#
=214	=214	=214	=214
1D	1d	1f#	1dd
[1G	1r	[1g	[1b-
=215	=215	=215	=215
1G]	0d	1g]	1b-]
1B-	.	1f	1dd
=216	=216	=216	=216
1c	1g	1e	1cc
1d	1f	2d	1a
.	.	[2a	.
=217	=217	=217	=217
1A	1e	2a]	2r
.	.	2a	1cc
1c	2r	2.g	.
.	[2g	.	2ee-
.	.	4a	.
=218	=218	=218	=218
2.G	4g]	1b-	2dd
.	4g	.	.
.	2g	.	2b-
4A	.	.	.
1B-	2d	2f	2.dd
.	[2f	2b-	.
.	.	.	4ee-
=219	=219	=219	=219
2F	4f]	2a	2.ff
.	4e-	.	.
1B-	4d	2b-	.
.	4c	.	4ee-
.	2B-	2a	2dd
2A	2c	2f	[2cc
=220	=220	=220	=220
2G	2d	1g	4cc]
.	.	.	4b-
2E-	2e-	.	1b-
1F	1c	1f	.
.	.	.	2a
=221	=221	=221	=221
2r	2B-	2r	2b-
2BB-	2B-	2f	2dd
1BB-	1B-	1f	1dd
=222	=222	=222	=222
2F	2A	2f	2cc
2BB-	2d	2f	2b-
1C	1c	1e	2a
.	.	.	2g
=223	=223	=223	=223
1D	2A	2d	2f
.	2d	2f	2.a
2.A	2c	2e	.
.	.	.	4b-
.	2f	2a	[2cc
4B-	.	.	.
=224	=224	=224	=224
2c	2e	2g	2cc]
2G	1d	2f	2b-
1A	.	1f	1a
.	2c#	.	.
=225	=225	=225	=225
0D	0d	2d	1a
.	.	2a	.
.	.	1a	2r
.	.	.	2dd
=226	=226	=226	=226
0r	0r	2g	1dd
.	.	2f	.
.	.	2e	2cc
.	.	2d	2b-
=227	=227	=227	=227
1r	0r	4c	2a
.	.	4d	.
.	.	4e	2g
.	.	4c	.
2r	.	2.d	1f
2d	.	.	.
.	.	4e	.
=228	=228	=228	=228
1d	0r	1f	2.a
.	.	.	4b-
2c	.	2e	2cc
2B-	.	2d	4f
.	.	.	4g
=229	=229	=229	=229
2A	0r	2c	4a
.	.	.	4f
2G	.	2B-	1b-
1F	.	1c	.
.	.	.	2a
=230	=230	=230	=230
2r	2r	2B-	2b-
2BB-	2f	2b-	2dd
1BB-	1f	1b-	1dd
=231	=231	=231	=231
2F	2f	2a	2cc
2BB-	2d	2f	2b-
1C	1c	1e	2a
.	.	.	2g
=232	=232	=232	=232
1.D	2A	1d	2.f
.	2.f	.	.
.	.	.	4g
.	.	1f	2a
.	4e	.	.
2BB-	2d	.	2b-
=233	=233	=233	=233
2C	4c	2e-	4a
.	4B-	.	4g
2E-	4A	2c	1g
.	4G	.	.
1D	1A	1d	.
.	.	.	2f#
=234	=234	=234	=234
0G	0G	0d	0g
==	==	==	==
*-	*-	*-	*-
!!!CDT: 1525/^1526/-1594/2/2
!!!OCY: Italia
!!!AGN: Mass (Parody)
!!!AST: renaissance, vocal
!!!ASW: Madrigal 1542 (Ferabosco)
!!!PWK: Masses, Book 3
!!!RNB: Cadence finals: A
!!!YOR: Le Opere Complete, v. 6, p. 30
!!!YOO: Rome, Italy: Fratelli Scalera
!!!END: 1992//
!!!EED: John Miller
!!!YEC: Copyright 2000, John Miller
!!!YEN: United States of America
!!!YEM: Rights to all derivative electronic formats reserved.
!!!YEM: Refer to licensing agreement for further details.
!!!YEM: This file must be accompanied by the licensing agreement.
!!!YEM: A copy of the licensing agreement may be found at http://www.music-cog.ohio-state.edu/HumdrumDatabases/Palestrina/license.txt
!!!EMD: converted to Humdrum by Bret Aarden
